X:1
T: Mrs. Brodie Sheriff of Battleblent's Strathspey
C:G. Rankin
R:Strathspey
Q: 128
K:G
M:4/4
L:1/16
|:D3E G3A B3A ((3B2c2d2) |e3g d3B ((3e2e2e2) e4|D3E G3A B3A ((3B2c2d2) |eg3 d3B ((3A2A2A2) A4|
D3E G3A B3A ((3B2c2d2) |e3g d3B ((3e2e2e2) e4|D3E G3A B3A ((3B2c2d2) |eg3 d3B ((3A2A2A2) A4|
g3a e3g d3g ((3B2A2G2) |g3a e3g ((3a2a2a2) a4|g3a e3g d3g ((3B2A2G2) |Bd3 A3B ((3G2G2G2) G4|
g3a e3g d3g ((3B2A2G2) |g3a e3g ((3a2a2a2) a4|((3b2g2g2) ((3a2f2f2) ((3g2e2e2) ((3d2g2g2) |B3d A3B ((3G2G2G2) G4:|
